X: 32981
T: Pretty Girl Milking Her Cow, The
R: waltz
M: 3/4
K: Bminor
M:12/8
|:ABc|dcd fed cBc edc|~B2A F6 B2 c|dcd fed cBc edc|Bba fec B3 B2 c|
dcd fed cBc edc|~B2A FAd f3 f2e|dcB cBAF2B B2A|B6-B3:|
|:ABc|dAd fdf a2b a2f|ecB A3 ecB ABc|dAd fdf afa d'2c'|b6 c'6|
afd Adf gec Ace|fdB FBd f3 e3|dcB cBA F2B B2A|B6-B3:|

